X:119
T:Lejas dopmarsch
C:Johan Ronström
C:Lisa Klevebrant
R:marsch
Z:2008-01-25
M:4/4
L:1/8
K:D
Ade|:f2dA G2B2|A3G FAde|f2ed g3d|e4- eAde|
f2dA G2B2|A3B ceag-|gfed g4|1a4- aAde:|2 a8||
a3f efd2|gfed B3A|G2b2 a4|e8|a3=f efd2|
ga=fg e2cA|GAB2- Bcd2|e4- eefg|a3f efd2|gfed B3A|
G4 b2a2|e8|a3=f efd2|ga=fg e2cA|GAB2 gfdB|e4- e|]
(:musicend:)

Tillägnad Britt Ronström

(:music:)
